!!!OTL: Fuchs im Loche
!!!ARE: Europa, Mitteleuropa, Deutschland
!!!SCT: A0504
!!!YEM: Copyright 1995, estate of Helmut Schaffrath.
**kern
*ICvox
*Ivox
*M4/4
*k[f#]
*G:
{4dd
=1
8b
8cc
8b
8a
4g
4dd
=2
8b
8cc
8b
8a
4g}
{4dd
=3
4ee
4dd
4cc
4b
=4
4a
4a
4a
4r}
=5
{4a
8a
8a
4f#
4d
=6
4dd
8dd
8dd
4b}
{4dd
=7
4b
4g
8a
8g
8a
8f#
=8
2g
4r}
==
!!!AGN: Romanze, Ballade, Lied, Kinderlied
!! Hainhofers Lautenbuch 1603.
!!!ONB: ESAC (Essen Associative Code) Database: ALTDEU
!!!AMT: simple quadruple
!!!AIN: vox
!!!EED: Helmut Schaffrath
!!!EEV: 1.0
*-
